public/images/ui/shape.svg

<svg fill="none" height="24" viewBox="0 0 24 25" width="24" xmlns="http://www.w3.org/2000/svg"><path clip-rule="evenodd" d="m12.6924 7.58308c-.3869.37131-.9979.37131-1.3848 0l-.6924-.66446c-.81043-.77773-1.90526-1.2526-3.1152-1.2526-2.48528 0-4.5 2.01471-4.5 4.49998 0 2.3826 1.28979 4.3501 3.15176 5.9666 1.86356 1.6179 4.09164 2.6909 5.42284 3.2385.2784.1145.5724.1145.8508 0 1.3312-.5476 3.5593-1.6206 5.4228-3.2385 1.862-1.6165 3.1518-3.584 3.1518-5.9666 0-2.48527-2.0147-4.49998-4.5-4.49998-1.2099 0-2.3048.47487-3.1152 1.2526zm-.6924-2.10749c-1.1679-1.12077-2.75351-1.80957-4.5-1.80957-3.58985 0-6.5 2.91014-6.5 6.49998 0 6.3683 6.97034 9.885 9.8138 11.0547.7658.315 1.6066.315 2.3724 0 2.8435-1.1697 9.8138-4.6864 9.8138-11.0547 0-3.58984-2.9101-6.49998-6.5-6.49998-1.7465 0-3.3321.6888-4.5 1.80957z" fill="#141718" fill-rule="evenodd"/></svg>

<svg width="24" height="25" viewBox="0 0 24 25" fill="none" xmlns="http://www.w3.org/2000/svg">
<path fill-rule="evenodd" clip-rule="evenodd" d="M12.6924 7.58308C12.3055 7.95439 11.6945 7.95439 11.3076 7.58308L10.6152 6.91862C9.80477 6.14089 8.70994 5.66602 7.5 5.66602C5.01472 5.66602 3 7.68073 3 10.166C3 12.5486 4.28979 14.5161 6.15176 16.1326C8.01532 17.7505 10.2434 18.8235 11.5746 19.3711C11.853 19.4856 12.147 19.4856 12.4254 19.3711C13.7566 18.8235 15.9847 17.7505 17.8482 16.1326C19.7102 14.5161 21 12.5486 21 10.166C21 7.68073 18.9853 5.66602 16.5 5.66602C15.2901 5.66602 14.1952 6.14089 13.3848 6.91862L12.6924 7.58308ZM12 5.47559C10.8321 4.35482 9.24649 3.66602 7.5 3.66602C3.91015 3.66602 1 6.57616 1 10.166C1 16.5343 7.97034 20.051 10.8138 21.2207C11.5796 21.5357 12.4204 21.5357 13.1862 21.2207C16.0297 20.051 23 16.5343 23 10.166C23 6.57616 20.0899 3.66602 16.5 3.66602C14.7535 3.66602 13.1679 4.35482 12 5.47559Z" fill="#141718"/>
</svg>
